src/like.svg

<svg viewBox="0 0 16 16" fill="none" xmlns="http://www.w3.org/2000/svg"><path d="M5 3C5.69421 3.00271 6.36191 3.26693 6.87 3.74L7.17 4.02L7.32 4.16L8 4.8L8.68 4.16L8.85 4L9.15 3.72C9.65065 3.25026 10.3135 2.99228 11 3H11.09C11.6675 3.00873 12.2287 3.19337 12.6986 3.52927C13.1685 3.86517 13.5248 4.33636 13.72 4.88C13.8654 5.25381 13.9078 5.65982 13.8427 6.0556C13.7776 6.45139 13.6075 6.82244 13.35 7.13C13.1073 7.45672 12.8398 7.76429 12.55 8.05L8 12.58L3.08 7.63C2.62976 7.18432 2.31732 6.61846 2.18 6C2.1363 5.77544 2.1363 5.54456 2.18 5.32C2.26241 4.88387 2.44916 4.47418 2.7243 4.1259C2.99944 3.77762 3.35479 3.50112 3.76 3.32C4.14253 3.11759 4.56729 3.00797 5 3ZM5 2C4.43912 2.00063 3.88553 2.12707 3.38 2.37C2.83022 2.61825 2.34906 2.99647 1.978 3.47206C1.60693 3.94766 1.35708 4.50636 1.25 5.1C1.1536 5.45527 1.13653 5.8274 1.2 6.19C1.37582 7.0011 1.78209 7.74419 2.37 8.33L8 14L13.22 8.77C13.5394 8.45763 13.8368 8.12349 14.11 7.77C14.4676 7.32984 14.7029 6.80331 14.7925 6.24334C14.882 5.68337 14.8225 5.10969 14.62 4.58C14.3633 3.84036 13.8867 3.19685 13.254 2.73573C12.6213 2.2746 11.8627 2.01789 11.08 2H11C10.0666 2.00202 9.16906 2.35961 8.49 3C8.32 3.14 8.17 3.3 8.01 3.45L7.55 3C6.85491 2.35959 5.94512 2.00282 5 2Z" fill="#111111"/></svg>

<svg viewBox="0 0 16 16" fill="none" xmlns="http://www.w3.org/2000/svg"><path d="M5 3a2.76 2.76 0 0 1 1.87.74l.3.28.15.14.68.64.68-.64.17-.16.3-.28A2.66 2.66 0 0 1 11 3h.09a2.84 2.84 0 0 1 2.63 1.88 2.24 2.24 0 0 1-.37 2.25c-.243.327-.51.634-.8.92L8 12.58 3.08 7.63A3.3 3.3 0 0 1 2.18 6a1.78 1.78 0 0 1 0-.68 2.75 2.75 0 0 1 1.58-2A2.76 2.76 0 0 1 5 3Zm0-1a3.75 3.75 0 0 0-1.62.37A3.72 3.72 0 0 0 1.25 5.1a2.51 2.51 0 0 0-.05 1.09 4.31 4.31 0 0 0 1.17 2.14L8 14l5.22-5.23a9.67 9.67 0 0 0 .89-1 3.23 3.23 0 0 0 .51-3.19A3.84 3.84 0 0 0 11.08 2H11a3.67 3.67 0 0 0-2.51 1c-.17.14-.32.3-.48.45L7.55 3A3.78 3.78 0 0 0 5 2Z" fill="#111111"/></svg>
